proprietary/assets/icons/medisch/omgevallen-pot-met-capsules.svg

<svg height="64" viewBox="0 0 64 64" width="64" xmlns="http://www.w3.org/2000/svg"><path d="m0 0h64v64h-64z" fill="none"/><path d="m52.003 5c-.001 0-.002.0002-.003.0002v-.0002h-16c-2.5651 0-4.9193 1.1267-6.7901 3h-5.8251c2.2816 1.5662 3.8378 5.7975 3.8378 11.0601 0 2.171-.2672 4.1634-.7385 5.869 1.6691.6882 3.0302 2.0884 3.5996 3.9453.2157.7032.2933 1.4149.2615 2.1108 1.6533 1.27 3.5827 2.0148 5.6548 2.0148h16v-.0002c.001 0 .002.0002.003.0002 4.4166 0 7.997-6.268 7.997-14s-3.5804-14-7.997-14z"/><path d="m12.032 27.8724.933-.2861v-4.5863h5.3574c1.2656 0 2.2991.9667 2.4368 2.1962l1.5166-.465c.1415-.0434.2838-.0745.4258-.1074-.3955-2.0609-2.2031-3.6196-4.3793-3.6196h-10.7145c-2.4656 0-4.4645 1.9988-4.4645 4.4644v.0001c0 2.4656 1.9988 4.4644 4.4645 4.4644h1.3879c.7571-.9445 1.7943-1.6799 3.0363-2.0607z"/><path d="m28.3765 29.3979c-.5892-1.9214-2.3566-3.1569-4.2667-3.1568-.4334.0001-.8745.0637-1.3104.1973l-10.2439 3.1412c-2.3573.7229-3.6823 3.2198-2.9594 5.5771.7227 2.3566 3.2188 3.6825 5.5771 2.9594l10.2438-3.1412c2.3574-.7228 3.6824-3.2197 2.9595-5.577zm-13.7896 6.8062c-1.2922.3962-2.6729-.3106-3.0787-1.6337-.3993-1.302.3313-2.6794 1.6337-3.0786l5.1219-1.5706 1.445 4.7123z"/><path d="m41.5446 38.6654-17.6652 1.9911c-4.8579.5476-8.3959 5.0065-7.8624 9.9088.5337 4.9025 4.9454 8.4653 9.8029 7.9175l17.6652-1.9911c4.8578-.5475 8.3959-5.0065 7.8624-9.9087-.5337-4.9026-4.9455-8.4653-9.8029-7.9176zm-18.8128 15.8569c-1.991-.9294-3.0103-2.4185-3.1918-4.4608-.1289-1.4489.3311-2.7803 1.1613-3.8298l1.7925 1.5944c-1.2099 1.5919-1.0923 4.9052.8086 6.6017-.0366.2705-.2332.2518-.5706.0945zm20.3652-1.5959-8.1387.9173c.7278-.9106 1.0878-2.9836.8316-5.3361-.3069-2.8203-1.3912-5.0515-2.509-5.3018l8.6518-.9752c2.9432-.3317 5.5656 1.8463 5.8818 4.7506.3196 2.9363-1.8084 5.6172-4.7175 5.9452z"/><path d="m18.3224 19.2184c2.9556 0 5.4329 2.0645 6.0801 4.8254.3628-1.3605.5975-3.011.5975-4.9167 0-5.655-2.0385-9.1271-3.5-9.1271-1.4666 0-3.5204 3.4984-3.4979 9.2184z"/></svg>

<?xml version="1.0" encoding="utf-8"?>
<!-- Generator: Adobe Illustrator 19.1.0, SVG Export Plug-In . SVG Version: 6.00 Build 0)  -->
<svg version="1.2" baseProfile="tiny" xmlns="http://www.w3.org/2000/svg" xmlns:xlink="http://www.w3.org/1999/xlink" x="0px"
	 y="0px" width="64px" height="64px" viewBox="0 0 64 64" xml:space="preserve">
<g id="_x36_4px_Box">
	<rect fill="none" width="64" height="64"/>
</g>
<g id="Icon">
	<g>
		<path d="M52.003,5C52.002,5,52.001,5.0002,52,5.0002V5H36c-2.5651,0-4.9193,1.1267-6.7901,3h-5.8251
			c2.2816,1.5662,3.8378,5.7975,3.8378,11.0601c0,2.171-0.2672,4.1634-0.7385,5.869c1.6691,0.6882,3.0302,2.0884,3.5996,3.9453
			c0.2157,0.7032,0.2933,1.4149,0.2615,2.1108C31.9985,32.2552,33.9279,33,36,33h16v-0.0002c0.001,0,0.002,0.0002,0.003,0.0002
			C56.4196,33,60,26.732,60,19S56.4196,5,52.003,5z"/>
		<path d="M12.032,27.8724l0.933-0.2861V23h5.3574c1.2656,0,2.2991,0.9667,2.4368,2.1962l1.5166-0.465
			c0.1415-0.0434,0.2838-0.0745,0.4258-0.1074c-0.3955-2.0609-2.2031-3.6196-4.3793-3.6196H7.6078
			c-2.4656,0-4.4645,1.9988-4.4645,4.4644v0.0001c0,2.4656,1.9988,4.4644,4.4645,4.4644h1.3879
			C9.7528,28.9886,10.79,28.2532,12.032,27.8724z"/>
		<path d="M28.3765,29.3979c-0.5892-1.9214-2.3566-3.1569-4.2667-3.1568c-0.4334,0.0001-0.8745,0.0637-1.3104,0.1973
			l-10.2439,3.1412c-2.3573,0.7229-3.6823,3.2198-2.9594,5.5771c0.7227,2.3566,3.2188,3.6825,5.5771,2.9594l10.2438-3.1412
			C27.7744,34.2521,29.0994,31.7552,28.3765,29.3979z M14.5869,36.2041c-1.2922,0.3962-2.6729-0.3106-3.0787-1.6337
			c-0.3993-1.302,0.3313-2.6794,1.6337-3.0786l5.1219-1.5706l1.445,4.7123L14.5869,36.2041z"/>
		<path d="M41.5446,38.6654l-17.6652,1.9911c-4.8579,0.5476-8.3959,5.0065-7.8624,9.9088c0.5337,4.9025,4.9454,8.4653,9.8029,7.9175
			l17.6652-1.9911c4.8578-0.5475,8.3959-5.0065,7.8624-9.9087C50.8138,41.6804,46.402,38.1177,41.5446,38.6654z M22.7318,54.5223
			c-1.991-0.9294-3.0103-2.4185-3.1918-4.4608c-0.1289-1.4489,0.3311-2.7803,1.1613-3.8298l1.7925,1.5944
			c-1.2099,1.5919-1.0923,4.9052,0.8086,6.6017C23.2658,54.6983,23.0692,54.6796,22.7318,54.5223z M43.097,52.9264l-8.1387,0.9173
			c0.7278-0.9106,1.0878-2.9836,0.8316-5.3361c-0.3069-2.8203-1.3912-5.0515-2.509-5.3018l8.6518-0.9752
			c2.9432-0.3317,5.5656,1.8463,5.8818,4.7506C48.1341,49.9175,46.0061,52.5984,43.097,52.9264z"/>
		<path d="M18.3224,19.2184c2.9556,0,5.4329,2.0645,6.0801,4.8254C24.7653,22.6833,25,21.0328,25,19.1271
			C25,13.4721,22.9615,10,21.5,10c-1.4666,0-3.5204,3.4984-3.4979,9.2184H18.3224z"/>
	</g>
</g>
</svg>
